src/collections/integrations/gitlab-runner-operator/icons/components/runner/icons/white/runner-white.svg

<svg width="380" height="380" viewBox="0 0 380 380" fill="none" xmlns="http://www.w3.org/2000/svg">
<path d="M282.829 170.728L282.559 170.038L256.419 101.818C255.888 100.481 254.946 99.347 253.729 98.5784C252.512 97.8228 251.092 97.4588 249.662 97.5357C248.231 97.6126 246.859 98.1266 245.729 99.0084C244.613 99.9154 243.803 101.145 243.409 102.528L225.759 156.528H154.289L136.639 102.528C136.257 101.137 135.445 99.9017 134.319 98.9984C133.19 98.1166 131.818 97.6026 130.387 97.5257C128.956 97.4488 127.537 97.8128 126.319 98.5684C125.106 99.3401 124.165 100.473 123.629 101.808L97.4394 169.998L97.1794 170.688C93.4164 180.52 92.952 191.309 95.856 201.428C98.7601 211.547 104.875 220.448 113.279 226.788L113.369 226.858L113.609 227.028L153.429 256.848L173.129 271.758L185.129 280.818C186.533 281.884 188.247 282.461 190.009 282.461C191.772 282.461 193.486 281.884 194.889 280.818L206.889 271.758L226.589 256.848L266.649 226.848L266.749 226.768C275.135 220.427 281.236 211.535 284.135 201.43C287.035 191.325 286.577 180.551 282.829 170.728Z" fill="white"/>
</svg>

<svg xmlns="http://www.w3.org/2000/svg" viewBox="0 0 380 380"><defs><style>.cls-1{fill:#fff;}</style></defs><g id="LOGO"><path class="cls-1" d="M282.83,170.73l-.27-.69-26.14-68.22a6.81,6.81,0,0,0-2.69-3.24,7,7,0,0,0-8,.43,7,7,0,0,0-2.32,3.52l-17.65,54H154.29l-17.65-54A6.86,6.86,0,0,0,134.32,99a7,7,0,0,0-8-.43,6.87,6.87,0,0,0-2.69,3.24L97.44,170l-.26.69a48.54,48.54,0,0,0,16.1,56.1l.09.07.24.17,39.82,29.82,19.7,14.91,12,9.06a8.07,8.07,0,0,0,9.76,0l12-9.06,19.7-14.91,40.06-30,.1-.08A48.56,48.56,0,0,0,282.83,170.73Z"/></g></svg>
